client/src/resources/icon/sad.svg

<?xml version="1.0" encoding="utf-8"?>
<!-- Generated by IcoMoon.io -->
<!DOCTYPE svg PUBLIC "-//W3C//DTD SVG 1.1//EN" "http://www.w3.org/Graphics/SVG/1.1/DTD/svg11.dtd">
<svg version="1.1" xmlns="http://www.w3.org/2000/svg" xmlns:xlink="http://www.w3.org/1999/xlink" width="20" height="20" viewBox="0 0 20 20">
<path fill="#000000" d="M9.5 20c-2.538 0-4.923-0.988-6.718-2.782s-2.782-4.18-2.782-6.717c0-2.538 0.988-4.923 2.782-6.718s4.18-2.783 6.718-2.783c2.538 0 4.923 0.988 6.718 2.783s2.782 4.18 2.782 6.718-0.988 4.923-2.782 6.717c-1.794 1.794-4.18 2.782-6.718 2.782zM9.5 2c-4.687 0-8.5 3.813-8.5 8.5s3.813 8.5 8.5 8.5 8.5-3.813 8.5-8.5-3.813-8.5-8.5-8.5z"></path>
<path fill="#000000" d="M6.5 8c-0.827 0-1.5-0.673-1.5-1.5s0.673-1.5 1.5-1.5 1.5 0.673 1.5 1.5-0.673 1.5-1.5 1.5zM6.5 6c-0.276 0-0.5 0.224-0.5 0.5s0.224 0.5 0.5 0.5 0.5-0.224 0.5-0.5-0.224-0.5-0.5-0.5z"></path>
<path fill="#000000" d="M12.5 8c-0.827 0-1.5-0.673-1.5-1.5s0.673-1.5 1.5-1.5 1.5 0.673 1.5 1.5-0.673 1.5-1.5 1.5zM12.5 6c-0.276 0-0.5 0.224-0.5 0.5s0.224 0.5 0.5 0.5 0.5-0.224 0.5-0.5-0.224-0.5-0.5-0.5z"></path>
<path fill="#000000" d="M5.499 15c-0.105 0-0.21-0.033-0.3-0.1-0.221-0.166-0.265-0.479-0.099-0.7 0.502-0.668 1.159-1.221 1.901-1.6 0.778-0.398 1.619-0.599 2.499-0.599s1.721 0.202 2.499 0.599c0.742 0.379 1.399 0.932 1.901 1.6 0.166 0.221 0.121 0.534-0.099 0.7s-0.534 0.121-0.7-0.099c-0.859-1.144-2.172-1.8-3.601-1.8s-2.741 0.656-3.601 1.8c-0.098 0.131-0.248 0.2-0.4 0.2z"></path>
</svg>

<svg xmlns="http://www.w3.org/2000/svg" width="20" height="20"><path d="M9.5 20c-2.538 0-4.923-.988-6.718-2.782S0 13.038 0 10.501c0-2.538.988-4.923 2.782-6.718S6.962 1 9.5 1c2.538 0 4.923.988 6.718 2.783S19 7.963 19 10.501s-.988 4.923-2.782 6.717A9.438 9.438 0 019.5 20zm0-18C4.813 2 1 5.813 1 10.5S4.813 19 9.5 19s8.5-3.813 8.5-8.5S14.187 2 9.5 2z"/><path d="M6.5 8C5.673 8 5 7.327 5 6.5S5.673 5 6.5 5 8 5.673 8 6.5 7.327 8 6.5 8zm0-2a.5.5 0 100 1 .5.5 0 000-1zm6 2c-.827 0-1.5-.673-1.5-1.5S11.673 5 12.5 5s1.5.673 1.5 1.5S13.327 8 12.5 8zm0-2a.5.5 0 100 1 .5.5 0 000-1zm-7.001 9a.5.5 0 01-.399-.8 5.549 5.549 0 011.901-1.6c.778-.398 1.619-.599 2.499-.599s1.721.202 2.499.599a5.549 5.549 0 011.901 1.6.5.5 0 01-.799.601c-.859-1.144-2.172-1.8-3.601-1.8s-2.741.656-3.601 1.8a.498.498 0 01-.4.2z"/></svg>
